!!!OTL@@DE: Bundeslied
!!!ONB: Mel. der franz. Mromanze: Br&ucirc;lant d'amour
!!!OMD: Fest und gehalten
!!!LYR: Hinkel, Carl
!!!LDT: 1815
!!!OCL: Erk, Ludwig
!!!GCO: Deutscher Liederschatz, Band 1
**kern	**kern	**kern
*staff3	*staff2	*staff1
*Ipiano	*Ipiano	*Ivox
*>[A,B,B]	*>[A,B,B]	*>[A,B,B]
*>norep[A,B]	*>norep[A,B]	*>norep[A,B]
*>A	*>A	*>A
*clefF4	*clefG2	*clefG2
*k[b-e-]	*k[b-e-]	*k[b-e-]
*B-:	*B-:	*B-:
*met(C)	*met(C)	*met(C)
*M4/4	*M4/4	*M4/4
*MM104	*MM104	*MM104
8r	8f/L	8f/
4r	8.dd/	8.dd\
.	16b-/Jk	16b-\
=1	=1	=1
*	*^	*
8BB-\ 8F\ 8B-\	4.f/	8d\	4.f/
8r	.	8r	.
8BB-\ 8F\ 8B-\	.	8d\	.
8r	8f/	8r	8f/
8BB-\ 8F\ 8B-\	8.f/L	8d\	8.f/
8r	.	8r	.
.	16f/k	.	16f/
8BB-\ 8B-\	8.g/	8d\	8.g/
8r	.	8r	.
.	16f/Jk	.	16f/
=2	=2	=2	=2
8F\ 8A\	(8f'/L	8c\	(8f/L
8r	8e-/J)	8r	8e-/J)
8F\ 8A\	4e-/	8c\	4e-/
8r	.	8r	.
8F\ 8A\	8r	8c\	8r
8r	8e-/L	8r	8e-/
8F\ 8A\	8.f/	8c\	8.f/
8r	.	8r	.
.	16e-/Jk	.	16e-/
*	*v	*v	*
=3	=3	=3
8BB-\ 8F\ 8B-\	4d/	4.d/
8r	.	.
8BB-\ 8F\ 8B-\	8d/L	.
8r	8f/J	8f/
*	*^	*
8E-\ 8B-\	8.g/L	8e-\	8.g/
8r	.	8r	.
.	16g/k	.	16g/
8E-\ 8e-\	8.dd/	8g\	8.dd\
8r	.	8r	.
.	16cc/Jk	.	16cc\
=4	=4	=4	=4
[4F\ (4d\	(4b-/	2f\	(4b-\
8.F\] 8.c\L)	4a/)	.	4a/)
16F\Jk	.	.	.
*	*v	*v	*
4FF/	8r	8r
.	8f/L	8f/
4r	8.dd/	8.dd\
.	16b-/Jk	16b-\
=5	=5	=5
*	*^	*
8BB-\ 8F\ 8B-\	4.f/	8d\	4.f/
8r	.	8r	.
8BB-\ 8F\ 8B-\	.	8d\	.
8r	8f/	8r	8f/
8BB-\ 8F\ 8B-\	8.f/L	8d\	8.f/
8r	.	8r	.
.	16f/k	.	16f/
*^	*	*	*
8.B-/L	8BB-\	8.g/	8d\	8.g/
.	8r	.	8r	.
16A/Jk	.	16f/Jk	.	16f/
*v	*v	*	*	*
*	*v	*v	*
=6	=6	=6
8C\ 8G\	(8c/ 8en/L	(8en/L
8r	8g/J)	&(8g/J&)
*	*^	*
8C\ 8G\ 8c\	4cc/	8e\	4cc\)
8r	.	8r	.
8C\ 8G\ 8c\	8r	8e\	8r
8r	8cc/L	8r	8cc\
8En\ 8G\ 8c\	8.cc/	8g\	8.cc\
8r	.	8r	.
.	16b-/Jk	.	16b-\
=7	=7	=7	=7
8F\ 8c\	(4a/	8f\	(4a/
8r	.	8r	.
8BB-\ 8B-\	8b-/L)	8d\	8b-/)
8r	8g/J	8r	8g/
8C\ 8A\	8.f/L	8c\	8.f/
8r	.	8r	.
.	16f/k	.	16f/
*^	*	*	*
8.c/L	4C\	8.a/	4en\	8.a/
16B-/Jk	.	16g/Jk	.	16g/
*v	*v	*	*	*
*	*v	*v	*
=8	=8	=8
4F\ 4A\	2f/	2f/
8.FF/ 8.F/L	.	.
16FF/ 16F/Jk	.	.
4FF/ 4F/	4r	4r
4F\	4f/	4f/
=9	=9	=9
*^	*^	*
4.A/	4F\	4.cc/	2f\	4.cc\
.	4E-\	.	.	.
8c/	.	8a/	.	8a/
*v	*v	*	*	*
8.D\ 8.d\L	(8.b-/L	4.f\	(8.b-/L
16E-\ 16c\k	16a/k	.	(16a/k)
8D\ 8B-\	8b-/	.	8b-/J)
8BB-\ 8B-\J	8dd/J)	8f\	8dd\
*	*v	*v	*
=10	=10	=10
4F\ 4A\	4f/ 4cc/	4cc\
4FF/ 4F/	4f/	4f/
4r	4r	4r
4F\	4f/	4f/
=11	=11	=11
4BB-\ 4B-\	4.f/ 4.b-/ 4.dd/	4.dd\
4FF/ 4F/	.	.
.	8f/ 8a/ 8cc/	8cc\
4DD/ 4D/	4.f/ 4.b-/	4.b-\
4BBB-/ 4BB-/	.	.
.	8f/ 8b-/ 8dd/	8dd\
=12	=12	=12
4FFF/ 4FF/	4f/ 4a/ 4cc/	4cc\
4FF/ 4F/	4f/	4f/
8r	8r	8r
=!|:	=!|:	=!|:
*>B	*>B	*>B
8r	8f/L	8f/
4r	8.en/ 8.g/	8.g/
.	16e-/ 16a/Jk	16a/
=13	=13	=13
4BBB-/ 4BB-/	4.d/ 4.b-/	4.b-\
4FF/ 4F/	.	.
.	8f/ 8a/ 8cc/	8cc\
8.BB-\ 8.B-\L	8.f/ 8.b-/ 8.dd/L	8.dd\
16C\ 16c\k	16f/ 16a/ 16cc/k	16cc\
8.D\ 8.d\	8.f/ 8.b-/	8.b-\
16BB-\ 16B-\Jk	16f/ 16a/Jk	16a/
=14	=14	=14
4E-\ (4B-\	(4g/	(4g/
&(4C\&) 4c\)	4ee-/)	4ee-\)
8r	8r	8r
8C\L	8g/ 8cc/ 8ee-/L	8ee-\
8.D\	8.f/ 8.bn/ 8.dd/	8.dd\
16E-\Jk	16e-/ 16g/ 16cc/Jk	16cc\
=15	=15	=15
4F\	4.d/ 4.f/ 4.b-/	4.b-\
4FF\	.	.
.	8d/ 8b-/	8b-\
4FF/ 4F/	8.e-/ 8.a/ 8.cc/L	8.cc\
.	16d/ 16b-/k	16b-\
4FF/ 4F/	8.e-/ 8.a/ 8.cc/	8.cc\
.	16f/ 16dd/Jk	16dd\
=16	=16	=16
4BB-\ 4B-\	2d/ 2b-/	2b-\
4FF/ 4F/	.	.
8BBB-/ 8BB-/	8r	8r
==:|!	==:|!	==:|!
*-	*-	*-
!!!ENC: Craig Stuart Sapp
!!!END: 2004/06/28/
!!!EFL: 143/651
